frontend/src/assets/images/Goggle Pay.svg

<svg width="42" height="16" viewBox="0 0 42 16" fill="none" xmlns="http://www.w3.org/2000/svg">
<g id="Goggle pay logo">
<g id="Pay_Typeface_3_">
<path id="Letter_p_3_" d="M19.6615 7.78455V12.4383H18.1846V0.946167H22.0999C23.0922 0.946167 23.9383 1.27693 24.6306 1.93846C25.3383 2.59999 25.6922 3.40768 25.6922 4.36151C25.6922 5.33842 25.3383 6.1461 24.6306 6.79994C23.946 7.45378 23.0999 7.77685 22.0999 7.77685H19.6615V7.78455ZM19.6615 2.36154V6.36918H22.1307C22.7153 6.36918 23.2076 6.16918 23.5922 5.77688C23.9845 5.38458 24.1845 4.90766 24.1845 4.3692C24.1845 3.83844 23.9845 3.36922 23.5922 2.97691C23.2076 2.56923 22.723 2.36923 22.1307 2.36923H19.6615V2.36154Z" fill="white"/>
<path id="Letter_a_3_" d="M29.5535 4.31561C30.6458 4.31561 31.5074 4.60792 32.1381 5.19252C32.7689 5.77713 33.0843 6.57712 33.0843 7.5925V12.4386H31.6766V11.3463H31.615C31.0074 12.2463 30.192 12.6924 29.1766 12.6924C28.3074 12.6924 27.5843 12.4386 26.9997 11.9232C26.4151 11.4078 26.1228 10.7694 26.1228 10.0002C26.1228 9.18478 26.4305 8.53864 27.0459 8.06172C27.6612 7.57711 28.4843 7.33865 29.5074 7.33865C30.3843 7.33865 31.1074 7.50019 31.6689 7.82326V7.4848C31.6689 6.96943 31.4689 6.53866 31.0612 6.17713C30.6535 5.81559 30.1766 5.63867 29.6305 5.63867C28.8074 5.63867 28.1535 5.98482 27.6766 6.68481L26.3766 5.86944C27.092 4.83099 28.1535 4.31561 29.5535 4.31561ZM27.6459 10.0232C27.6459 10.4078 27.8074 10.7309 28.1382 10.9848C28.4612 11.2386 28.8458 11.3694 29.2843 11.3694C29.9074 11.3694 30.4612 11.1386 30.9458 10.6771C31.4304 10.2155 31.6766 9.67709 31.6766 9.05402C31.215 8.69248 30.5766 8.50787 29.7535 8.50787C29.1535 8.50787 28.6535 8.65402 28.2535 8.93863C27.8459 9.23863 27.6459 9.60016 27.6459 10.0232Z" fill="white"/>
<path id="Letter_y_3_" d="M41.115 4.56921L36.192 15.8922H34.6689L36.4997 11.9307L33.2535 4.56921H34.8612L37.1996 10.2153H37.2304L39.5073 4.56921H41.115Z" fill="white"/>
</g>
<g id="G_Mark_1_">
<path id="Blue_500" d="M13.7873 6.84606C13.7873 6.36453 13.7442 5.90376 13.6642 5.46069H7.47351V7.99912L11.0389 7.99989C10.8942 8.8445 10.4289 9.56449 9.71579 10.0445V11.6914H11.8381C13.0773 10.5445 13.7873 8.84911 13.7873 6.84606Z" fill="#4285F4"/>
<path id="Green_500_1_" d="M9.71673 10.0447C9.12597 10.4432 8.36521 10.6763 7.47522 10.6763C5.75601 10.6763 4.29756 9.51782 3.77526 7.9563H1.58606V9.65474C2.67066 11.807 4.89987 13.2839 7.47522 13.2839C9.2552 13.2839 10.7506 12.6985 11.839 11.6909L9.71673 10.0447Z" fill="#34A853"/>
<path id="Yellow_500_1_" d="M3.56882 6.69644C3.56882 6.25798 3.6419 5.83414 3.77497 5.43569V3.73724H1.58577C1.13731 4.62723 0.88501 5.63184 0.88501 6.69644C0.88501 7.76104 1.13808 8.76564 1.58577 9.65563L3.77497 7.95719C3.6419 7.55874 3.56882 7.13489 3.56882 6.69644Z" fill="#FABB05"/>
<path id="Red_500" d="M7.47522 2.71563C8.44674 2.71563 9.31673 3.05024 10.0036 3.70408L11.8844 1.82487C10.7421 0.761041 9.25289 0.107971 7.47522 0.107971C4.90063 0.107971 2.67066 1.58488 1.58606 3.73716L3.77526 5.4356C4.29756 3.87408 5.75601 2.71563 7.47522 2.71563Z" fill="#E94235"/>
</g>
</g>
</svg>

<svg xmlns="http://www.w3.org/2000/svg" width="42" height="16" fill="none"><g fill="#fff"><path d="M19.662 7.785v4.653h-1.477V.946H22.1c.992 0 1.838.33 2.53.992q1.062.993 1.062 2.424c0 .976-.354 1.784-1.061 2.438q-1.03.979-2.531.977H19.66zm0-5.423v4.007h2.469c.584 0 1.077-.2 1.461-.592.393-.392.593-.87.593-1.408 0-.53-.2-1-.593-1.392-.384-.408-.869-.608-1.461-.608h-2.47zM29.554 4.316q1.638 0 2.584.877.945.876.946 2.4v4.846h-1.407v-1.093h-.062c-.608.9-1.423 1.346-2.438 1.346-.87 0-1.593-.253-2.177-.769q-.877-.771-.877-1.923 0-1.223.923-1.938c.615-.485 1.438-.723 2.461-.723q1.317 0 2.162.484v-.338c0-.516-.2-.946-.608-1.308a2.09 2.09 0 0 0-1.43-.538q-1.237-.002-1.954 1.046l-1.3-.816c.715-1.038 1.777-1.553 3.177-1.553m-1.908 5.707c0 .385.161.708.492.962.323.254.708.384 1.146.384q.934 0 1.662-.692c.484-.461.73-1 .73-1.623q-.69-.545-1.922-.546c-.6 0-1.1.146-1.5.43-.408.3-.608.662-.608 1.085M41.115 4.57l-4.923 11.322h-1.523l1.83-3.961-3.245-7.362h1.607l2.339 5.646h.03l2.277-5.646z"/></g><path fill="#4285F4" d="M13.787 6.846q-.002-.721-.123-1.385h-6.19v2.538h3.565a3.05 3.05 0 0 1-1.323 2.045v1.647h2.122c1.24-1.147 1.95-2.842 1.95-4.845"/><path fill="#34A853" d="M9.717 10.045c-.591.398-1.352.631-2.242.631-1.719 0-3.177-1.158-3.7-2.72H1.586v1.699a6.59 6.59 0 0 0 5.89 3.629c1.78 0 3.275-.586 4.363-1.593z"/><path fill="#FABB05" d="M3.569 6.696c0-.438.073-.862.206-1.26V3.737h-2.19c-.448.89-.7 1.895-.7 2.96s.253 2.069.7 2.959l2.19-1.699a4 4 0 0 1-.206-1.26"/><path fill="#E94235" d="M7.475 2.716c.972 0 1.842.334 2.529.988l1.88-1.88C10.742.762 9.253.109 7.475.109a6.59 6.59 0 0 0-5.889 3.63l2.19 1.698c.522-1.562 1.98-2.72 3.7-2.72"/></svg>
